rospo-light/24x24/actions/distribute-vertical-node.svg

<svg height="24" viewBox="0 0 24 24" width="24" xmlns="http://www.w3.org/2000/svg"><path d="m .49414062 0a .49975.49977 0 0 0 -.36328124.83007812c.90656002 1.05799998 2.54991562 1.56932188 4.47851562 1.98242188 1.3663.2927 2.8804719.5179937 4.3886719.7460938v2.4453124h2.0058591v3h-2.0058591v1.4394528c-.004.000656-.0077198.001253-.0117188.001953-2.1094.346411-4.22815.798784-5.90625 1.683594-1.6783.88481-2.93145935 2.283138-3.06835935 4.335938-.053987.81504.24784312 1.540872.78320313 2.076172.53537002.53523 1.27474372.906005 2.15234372 1.197265 1.619.53723 3.7466813.799156 6.0507813 1.009766v2.251953h2.0058591v.996094h.5.5v-.5-.496094h1.992188v-1.796875c3.7035.36184 7.243503.890494 9.220703 2.208984a.49998181.49999181 0 0 0  .554687-.832031c-1.0899-.72685-2.494128-1.216878-4.048828-1.580078h4.271485v-1h-2.5-7.498047v-1.998047h-1.992188v-4h1.992188v-2h7.498047 2.5v-1h-2.5-7.498047v-.339844c.3544-.06792.708026-.135773 1.035156-.214843.84919-.20532 1.598325-.4532973 2.203125-.8105472.60485-.3572401 1.0852-.8546719 1.25-1.5136719.21-.837.108188-1.6131406-.257813-2.2441407-.367-.631-.963593-1.1057281-1.683593-1.4863281-.273-.1445-.582578-.2670719-.892578-.3886719h5.84375 2.5v-1h-9.998047v-1.9980468h-1.992188v-.50000002-.5h-1v .5.50000002h-2.0058591v1.5410156c-1.4589-.2216-2.9061875-.4400906-4.1796875-.7128906-1.8617-.3988-3.3353344-.9630669-3.9277344-1.6542969a.49975.49977 0 0 0 -.39648438-.1796875zm21.00000038 4.0039062-1.53125 2h1.03125v3h-1l1.5 1.9980468 1.5-1.9980468h-1v-3h .96875zm0 7.9980468-1.53125 2h1.03125v4h-1l1.5 1.998047 1.5-1.998047h-1v-4h .96875zm-7.498047-7.4882811c.79883.219 1.517478.4664618 2.080078.7636719.61585.3254 1.048556.6957356 1.285156 1.1035156.23664.40779.311604.86254.152344 1.5-.08498.34059-.32442.6231544-.78711.8964844-.462779.27332-1.131687.5062687-1.929687.6992187-.24866.06012-.529301.1121756-.800781.1660156v-.6386719h-1.992188v-3h1.992188zm-4.9980471 6.9453121v2.542969h2.0058591v4h-2.0058591v1.740235c-2.2483-.209-4.2958281-.473172-5.7363281-.951172-.7915001-.263-1.3946188-.590032-1.7617188-.957032s-.52737437-.745734-.4902344-1.302734c.1129-1.695 1.0456094-2.733531 2.5371094-3.519531 1.455-.767 3.4288719-1.214735 5.4511719-1.552735z" fill="#31363b"/></svg>

<svg xmlns="http://www.w3.org/2000/svg" width="24" height="24" viewBox="0 0 24 24">
 <defs>
  <style id="current-color-scheme" type="text/css">
   .ColorScheme-Text { color:#31363b; } .ColorScheme-Highlight { color:#3daee9; }
  </style>
 </defs>
 <path style="fill:currentColor" class="ColorScheme-Text" d="M 0.49414062 0 A 0.49975 0.49977 0 0 0 0.13085938 0.83007812 C 1.0374194 1.8880781 2.680775 2.3994 4.609375 2.8125 C 5.975675 3.1052 7.4898469 3.3304937 8.9980469 3.5585938 L 8.9980469 6.0039062 L 11.003906 6.0039062 L 11.003906 9.0039062 L 8.9980469 9.0039062 L 8.9980469 10.443359 C 8.9940469 10.444015 8.9903271 10.444612 8.9863281 10.445312 C 6.8769281 10.791723 4.7581781 11.244096 3.0800781 12.128906 C 1.4017781 13.013716 0.14861875 14.412044 0.01171875 16.464844 C -0.04226825 17.279884 0.25956187 18.005716 0.79492188 18.541016 C 1.3302919 19.076246 2.0696656 19.447021 2.9472656 19.738281 C 4.5662656 20.275511 6.6939469 20.537437 8.9980469 20.748047 L 8.9980469 23 L 11.003906 23 L 11.003906 23.996094 L 11.503906 23.996094 L 12.003906 23.996094 L 12.003906 23.496094 L 12.003906 23 L 13.996094 23 L 13.996094 21.203125 C 17.699594 21.564965 21.239597 22.093619 23.216797 23.412109 A 0.49998181 0.49999181 0 0 0 23.771484 22.580078 C 22.681584 21.853228 21.277356 21.3632 19.722656 21 L 23.994141 21 L 23.994141 20 L 21.494141 20 L 13.996094 20 L 13.996094 18.001953 L 12.003906 18.001953 L 12.003906 14.001953 L 13.996094 14.001953 L 13.996094 12.001953 L 21.494141 12.001953 L 23.994141 12.001953 L 23.994141 11.001953 L 21.494141 11.001953 L 13.996094 11.001953 L 13.996094 10.662109 C 14.350494 10.594189 14.70412 10.526336 15.03125 10.447266 C 15.88044 10.241946 16.629575 9.9939687 17.234375 9.6367188 C 17.839225 9.2794787 18.319575 8.7820469 18.484375 8.1230469 C 18.694375 7.2860469 18.592563 6.5099063 18.226562 5.8789062 C 17.859562 5.2479062 17.262969 4.7731781 16.542969 4.3925781 C 16.269969 4.2480781 15.960391 4.1255062 15.650391 4.0039062 L 21.494141 4.0039062 L 23.994141 4.0039062 L 23.994141 3.0039062 L 13.996094 3.0039062 L 13.996094 1.0058594 L 12.003906 1.0058594 L 12.003906 0.50585938 L 12.003906 0.005859375 L 11.003906 0.005859375 L 11.003906 0.50585938 L 11.003906 1.0058594 L 8.9980469 1.0058594 L 8.9980469 2.546875 C 7.5391469 2.325275 6.0918594 2.1067844 4.8183594 1.8339844 C 2.9566594 1.4351844 1.483025 0.8709175 0.890625 0.1796875 A 0.49975 0.49977 0 0 0 0.49414062 0 z M 21.494141 4.0039062 L 19.962891 6.0039062 L 20.994141 6.0039062 L 20.994141 9.0039062 L 19.994141 9.0039062 L 21.494141 11.001953 L 22.994141 9.0039062 L 21.994141 9.0039062 L 21.994141 6.0039062 L 22.962891 6.0039062 L 21.494141 4.0039062 z M 21.494141 12.001953 L 19.962891 14.001953 L 20.994141 14.001953 L 20.994141 18.001953 L 19.994141 18.001953 L 21.494141 20 L 22.994141 18.001953 L 21.994141 18.001953 L 21.994141 14.001953 L 22.962891 14.001953 L 21.494141 12.001953 z M 13.996094 4.5136719 C 14.794924 4.7326719 15.513572 4.9801337 16.076172 5.2773438 C 16.692022 5.6027438 17.124728 5.9730794 17.361328 6.3808594 C 17.597968 6.7886494 17.672932 7.2433994 17.513672 7.8808594 C 17.428692 8.2214494 17.189252 8.5040138 16.726562 8.7773438 C 16.263783 9.0506638 15.594875 9.2836125 14.796875 9.4765625 C 14.548215 9.5366825 14.267574 9.5887381 13.996094 9.6425781 L 13.996094 9.0039062 L 12.003906 9.0039062 L 12.003906 6.0039062 L 13.996094 6.0039062 L 13.996094 4.5136719 z M 8.9980469 11.458984 L 8.9980469 14.001953 L 11.003906 14.001953 L 11.003906 18.001953 L 8.9980469 18.001953 L 8.9980469 19.742188 C 6.7497469 19.533188 4.7022188 19.269016 3.2617188 18.791016 C 2.4702187 18.528016 1.8671 18.200984 1.5 17.833984 C 1.1329 17.466984 0.97262563 17.08825 1.0097656 16.53125 C 1.1226656 14.83625 2.055375 13.797719 3.546875 13.011719 C 5.001875 12.244719 6.9757469 11.796984 8.9980469 11.458984 z"/>
</svg>
